src/pos-icons/format-header-6.svg

<svg height="24" viewBox="0 0 24 24" width="24" xmlns="http://www.w3.org/2000/svg"><path d="m3 4h2v6h4v-6h2v14h-2v-6h-4v6h-2zm12 0h4a2 2 0 0 1 2 2v1h-2v-1h-4v4h4a2 2 0 0 1 2 2v4a2 2 0 0 1 -2 2h-4a2 2 0 0 1 -2-2v-10a2 2 0 0 1 2-2m0 8v4h4v-4z"/></svg>

<?xml version="1.0" encoding="UTF-8"?><!DOCTYPE svg PUBLIC "-//W3C//DTD SVG 1.1//EN" "http://www.w3.org/Graphics/SVG/1.1/DTD/svg11.dtd"><svg xmlns="http://www.w3.org/2000/svg" xmlns:xlink="http://www.w3.org/1999/xlink" version="1.1" id="mdi-format-header-6" width="24" height="24" viewBox="0 0 24 24"><path d="M3,4H5V10H9V4H11V18H9V12H5V18H3V4M15,4H19A2,2 0 0,1 21,6V7H19V6H15V10H19A2,2 0 0,1 21,12V16A2,2 0 0,1 19,18H15A2,2 0 0,1 13,16V6A2,2 0 0,1 15,4M15,12V16H19V12H15Z" /></svg>
